!!!SOCIAL_FUNCTION:	unclassified songs
!!!PDT:	1909
!!!OTL: No_196_Song_Referring_to_a_Vision.krn
!!!REG: Great_Lakes
!!!LANG: Non-Tone
!!!LING_GROUP: Algonquin
**kern	**kern
*staff2	*staff1
=1-	=1-
*clefF4	*clefF4
*k[f#c#g#]	*k[f#c#g#]
*M3/4	*M3/4
8r	4c#\
8GG#/	.
12GG#^/	4f#\
12r	.
12GG#/	.
12GG#^/	8c#\L
12r	.
.	8B\J
12GG#/	.
=2||	=2||
*M4/4	*M4/4
1r	4c#\
.	8c#\L
.	8B\J
.	4A\
.	8B\L
.	8A\J
=3	=3
1r	8.F#\L
.	16F#\Jk
.	2F#\
.	4F#\
=4||	=4||
*M2/4	*M2/4
2r	8F#\L
.	8G#\J
.	8F#\L
.	8E\J
=5	=5
2r	4F#\
.	4F#\
=6	=6
2r	8F#\L
.	8E\J
.	8F#\L
.	8E\J
=7||	=7||
*M3/4	*M3/4
2.r	8.C#/L
.	16C#/Jk
.	4.C#/
.	8C#/
=8	=8
2.r	2.C#/
==	==
*-	*-
